X: 303
%
U:~=!turn!
T: Lady Harriet Hope
C:
O:Scotland
B:Keith Norman MacDonald : "The Skye collection of the best reels & strathspeys extant" : 1887
Z:Ralph Palmer
R:Reel
M:C|
L:1/8
K:F
A | FAcf T(dc)T(BA) | Tf2 (af) gGGA | FAcf T(dc)T(BA) | BGcA F/F/F TF ||
c | Tfcfg (f/g/a) (gf) | ecgc acgc | Tfcfg (f/g/a) (gf) | cfeg f/f/f T(fc) |
fcfg (f/g/a) (gf) | Tgfga baga | TfdcB {/B}A2 (fd) | cABG F/F/F TF |]


